X:1
T:Title
%%score { ( 1 3 ) | 2 }
L:1/8
Q:1/4=93
M:6/8
K:F
V:1 treble nm="Grand Piano"
V:3 treble 
V:2 bass 
V:1
 AAA A>GF | [EG]3 F2 A | [EG][EG][EG] [DG][DF]D | E3- E2 C | FFF FGA | [B,DB]3 [F,D]2 [B,DG] | %6
w: William~J.~Kirkpatrick * * * * *||||||
 [A,CF][A,CF][A,C] [CFA]>[CFA][B,EG] | [A,F]6 | [EG][EG][EG] [GB]3 | AAA c3 | [Fd][Fd][Fd] c>AF | %11
w: |||||
 [FA]3 .[EG]3 | AAA [Gc]3 | FFF z2 G, | DDD C>F[FA] | [EG]3 .[A,F]3 |] %16
w: |||||
V:2
 [F,CF][F,CF][F,CF] [F,CF]>[F,B,F][F,A,] | [C,B,]3 [F,A,]2 [F,CF] | %2
 [C,C][C,C][C,C] [=B,,G,][B,,G,][B,,G,] | [C,G,C]3- [C,G,C]2 [E,B,] | %4
 [F,A,C][F,A,C][F,A,C] [F,A,][F,B,E][F,C_E] | B,,3 B,,2 B,, | C,C,C, C,>C,C, | F,6 | %8
 [C,C][C,C][C,C] [C,C]3 | [F,CF][F,CF][F,CF] [F,A,F]3 | [B,,B,][B,,B,][D,B,] [F,A,F]>[F,CF][F,A,] | %11
 [C,C]3 .[C,C]3 | [F,CF][F,CF][F,CF] [E,G,]3 | [D,A,D][D,A,D][D,A,D] .[A,,A,]3 | %14
 [B,,F,B,][B,,F,B,][B,,F,B,] [C,F,A,]>[C,A,C][C,C] | [C,B,]3 .[F,,F,]3 |] %16
V:3
 x6 | x6 | x6 | x6 | x6 | x6 | x6 | x6 | x6 | x6 | x6 | x6 | x6 | z3 [^CE]3 | x6 | x6 |] %16

